assets/svg/Motorcycle.svg

<svg width="64" height="48" viewBox="0 0 64 48" fill="none" xmlns="http://www.w3.org/2000/svg">
<g clip-path="url(#clip0_88_346)">
<path d="M48.3101 21.79C46.9945 21.7959 45.7103 22.1913 44.6192 22.9263C43.5281 23.6612 42.6792 24.7029 42.1794 25.9198C41.6796 27.1366 41.5514 28.4743 41.811 29.7639C42.0705 31.0536 42.7062 32.2375 43.6378 33.1663C44.5694 34.0951 45.7552 34.7273 47.0456 34.9829C48.336 35.2386 49.6733 35.1064 50.8887 34.603C52.1041 34.0996 53.1431 33.2475 53.8748 32.1543C54.6065 31.061 54.9981 29.7755 55 28.46C55.0014 27.582 54.8291 26.7125 54.4931 25.9013C54.1571 25.0902 53.6641 24.3535 53.0423 23.7336C52.4206 23.1137 51.6824 22.6228 50.8702 22.2893C50.0581 21.9557 49.188 21.7861 48.3101 21.79ZM48.3101 33.49C47.3211 33.49 46.3544 33.1968 45.5322 32.6474C44.71 32.098 44.0691 31.3171 43.6906 30.4034C43.3122 29.4898 43.2132 28.4845 43.4061 27.5146C43.599 26.5447 44.0753 25.6537 44.7745 24.9545C45.4738 24.2552 46.3647 23.779 47.3346 23.5861C48.3045 23.3932 49.3098 23.4922 50.2235 23.8706C51.1371 24.2491 51.918 24.8899 52.4674 25.7122C53.0168 26.5344 53.3101 27.5011 53.3101 28.49C53.3101 29.1466 53.1807 29.7968 52.9294 30.4034C52.6782 31.0101 52.3099 31.5613 51.8456 32.0255C51.3813 32.4898 50.8301 32.8581 50.2235 33.1094C49.6168 33.3607 48.9667 33.49 48.3101 33.49Z" fill="#081B31"/>
<path d="M48.31 22.94C47.2183 22.94 46.1511 23.2637 45.2433 23.8703C44.3355 24.4768 43.628 25.3389 43.2102 26.3476C42.7924 27.3562 42.6831 28.4661 42.8961 29.5369C43.1091 30.6077 43.6348 31.5912 44.4068 32.3632C45.1788 33.1352 46.1624 33.6609 47.2331 33.8739C48.3039 34.0869 49.4138 33.9776 50.4225 33.5598C51.4311 33.142 52.2932 32.4345 52.8998 31.5267C53.5063 30.619 53.83 29.5518 53.83 28.46C53.83 26.996 53.2485 25.592 52.2133 24.5568C51.1781 23.5216 49.774 22.94 48.31 22.94ZM48.31 33.49C47.3211 33.49 46.3544 33.1968 45.5322 32.6473C44.7099 32.0979 44.0691 31.317 43.6906 30.4034C43.3122 29.4898 43.2132 28.4845 43.4061 27.5146C43.599 26.5446 44.0752 25.6537 44.7745 24.9545C45.4738 24.2552 46.3647 23.779 47.3346 23.5861C48.3045 23.3931 49.3098 23.4922 50.2235 23.8706C51.1371 24.249 51.918 24.8899 52.4674 25.7122C53.0168 26.5344 53.31 27.5011 53.31 28.49C53.31 29.8161 52.7833 31.0879 51.8456 32.0255C50.9079 32.9632 49.6361 33.49 48.31 33.49Z" fill="#081B31"/>
<path d="M44.28 24.33C44.4083 24.4432 44.558 24.5296 44.7202 24.5839C44.8825 24.6383 45.0539 24.6596 45.2246 24.6465C45.3952 24.6335 45.5614 24.5864 45.7135 24.5079C45.8656 24.4295 46.0004 24.3214 46.11 24.19C47.77 22.29 51.19 21.41 50.26 21.19C48.978 20.851 47.6291 20.8574 46.3504 21.2087C45.0717 21.56 43.9088 22.2436 42.98 23.19L44.28 24.33Z" fill="#FF8E1F"/>
<path d="M18.19 21.51C16.8154 21.51 15.4717 21.9176 14.3288 22.6813C13.1859 23.445 12.2951 24.5304 11.769 25.8004C11.243 27.0703 11.1054 28.4677 11.3735 29.8159C11.6417 31.1641 12.3036 32.4024 13.2756 33.3744C14.2476 34.3464 15.4859 35.0083 16.8341 35.2765C18.1823 35.5446 19.5797 35.407 20.8496 34.881C22.1196 34.3549 23.205 33.4641 23.9687 32.3212C24.7324 31.1783 25.14 29.8346 25.14 28.46C25.14 26.6168 24.4078 24.849 23.1044 23.5456C21.801 22.2422 20.0332 21.51 18.19 21.51ZM18.19 32.97C17.298 32.97 16.426 32.7055 15.6844 32.2099C14.9427 31.7144 14.3646 31.01 14.0233 30.1859C13.6819 29.3618 13.5926 28.455 13.7667 27.5802C13.9407 26.7053 14.3702 25.9017 15.0009 25.271C15.6317 24.6402 16.4353 24.2107 17.3101 24.0367C18.185 23.8626 19.0918 23.952 19.9159 24.2933C20.74 24.6347 21.4444 25.2127 21.9399 25.9544C22.4355 26.6961 22.7 27.568 22.7 28.46C22.704 29.0548 22.5902 29.6445 22.3653 30.1951C22.1405 30.7458 21.8089 31.2465 21.3897 31.6685C20.9705 32.0904 20.472 32.4253 19.9229 32.6539C19.3737 32.8824 18.7848 33 18.19 33V32.97Z" fill="#081B31"/>
<path d="M18.19 23C17.1041 23 16.0427 23.322 15.1399 23.9252C14.237 24.5285 13.5334 25.3859 13.1179 26.3891C12.7023 27.3922 12.5936 28.4961 12.8054 29.561C13.0173 30.626 13.5401 31.6042 14.3079 32.372C15.0757 33.1398 16.054 33.6627 17.1189 33.8745C18.1839 34.0863 19.2877 33.9776 20.2909 33.5621C21.2941 33.1466 22.1515 32.4429 22.7547 31.5401C23.358 30.6373 23.68 29.5758 23.68 28.49C23.68 27.034 23.1015 25.6376 22.072 24.608C21.0424 23.5784 19.646 23 18.19 23ZM18.19 33C17.298 33 16.426 32.7355 15.6843 32.2399C14.9427 31.7444 14.3646 31.04 14.0233 30.2159C13.6819 29.3918 13.5926 28.485 13.7666 27.6101C13.9406 26.7353 14.3702 25.9317 15.0009 25.3009C15.6316 24.6702 16.4352 24.2407 17.3101 24.0667C18.185 23.8926 19.0918 23.982 19.9159 24.3233C20.74 24.6647 21.4443 25.2427 21.9399 25.9844C22.4354 26.726 22.7 27.598 22.7 28.49C22.7 29.6861 22.2248 30.8333 21.379 31.6791C20.5332 32.5248 19.3861 33 18.19 33Z" fill="#081B31"/>
<path d="M48.3101 31.59C50.0387 31.59 51.4401 30.1886 51.4401 28.46C51.4401 26.7313 50.0387 25.33 48.3101 25.33C46.5814 25.33 45.1801 26.7313 45.1801 28.46C45.1801 30.1886 46.5814 31.59 48.3101 31.59Z" fill="#081B31"/>
<path d="M48.31 30.44C49.4035 30.44 50.29 29.5535 50.29 28.46C50.29 27.3665 49.4035 26.48 48.31 26.48C47.2164 26.48 46.33 27.3665 46.33 28.46C46.33 29.5535 47.2164 30.44 48.31 30.44Z" fill="#081B31"/>
<path d="M18.19 31.57C19.9076 31.57 21.3 30.1776 21.3 28.46C21.3 26.7424 19.9076 25.35 18.19 25.35C16.4724 25.35 15.08 26.7424 15.08 28.46C15.08 30.1776 16.4724 31.57 18.19 31.57Z" fill="#081B31"/>
<path d="M41.85 21.61L47.4 29.88L48.73 28.93L43.19 20.66L41.85 21.61Z" fill="#081B31"/>
<path d="M18.28 30.43H30.54L33.25 26.43H18.25C17.7196 26.43 17.2109 26.6407 16.8358 27.0158C16.4607 27.3909 16.25 27.8996 16.25 28.43C16.25 28.6952 16.3027 28.9577 16.4051 29.2024C16.5074 29.447 16.6574 29.6688 16.8464 29.8549C17.0353 30.041 17.2593 30.1877 17.5054 30.2864C17.7515 30.3852 18.0148 30.434 18.28 30.43Z" fill="#081B31"/>
<path d="M19.55 16.67C22.1656 16.7092 24.762 17.1234 27.26 17.9C27.5418 17.994 27.7754 18.1951 27.91 18.46L28.36 19.33C28.4997 19.5163 28.6809 19.6675 28.8892 19.7716C29.0974 19.8758 29.3271 19.93 29.56 19.93H32.23L34.76 16.6C35.4265 15.8188 36.3079 15.2507 37.2946 14.9663C38.2813 14.6818 39.3299 14.6935 40.31 15L45.31 16.89L41.31 26.72C40.764 28.0539 39.8334 29.1951 38.6367 29.9982C37.44 30.8014 36.0312 31.2302 34.59 31.23H26.87L27.62 27.69C24.33 20.66 22 19.52 17.1 19L18.1 17.43C18.2532 17.1867 18.468 16.9882 18.7226 16.8548C18.9773 16.7213 19.2627 16.6575 19.55 16.67Z" fill="#FF8E1F"/>
<g style="mix-blend-mode:multiply" opacity="0.5">
<path d="M19 18.63L20.25 17.36H18.17V17.41L17.37 18.63H19Z" fill="#FF8E1F"/>
</g>
<path d="M27.62 27.72L26.87 31.26H34.54C35.9813 31.2602 37.39 30.8314 38.5867 30.0282C39.7835 29.2251 40.7141 28.0839 41.26 26.75L45.15 17.25C45.15 17.25 23.79 21.2 27.62 27.72Z" fill="#FF8E1F"/>
<path d="M29.55 19.93C29.3171 19.93 29.0874 19.8758 28.8791 19.7716C28.6709 19.6675 28.4897 19.5163 28.35 19.33L27.9 18.46C27.8337 18.3285 27.7422 18.2114 27.6307 18.1153C27.5192 18.0192 27.3898 17.946 27.25 17.9C26.82 17.76 26.39 17.64 25.96 17.53V17.67C26.0203 18.4055 26.2656 19.1138 26.6729 19.7292C27.0803 20.3446 27.6365 20.8471 28.29 21.19C28.8876 21.5056 29.5792 21.5944 30.2372 21.44C30.8952 21.2857 31.4751 20.8985 31.87 20.35L32.17 19.93H29.55Z" fill="#081B31"/>
<path d="M29.43 30.43V27.94C29.26 24.31 41.43 22.08 41.43 22.08L39.72 26.2C39.2167 27.4505 38.3506 28.5218 37.2331 29.2757C36.1156 30.0295 34.798 30.4316 33.45 30.43H29.43Z" fill="#081B31"/>
<path d="M32.11 25.47C31.89 25.59 31.68 25.71 31.49 25.83V30H32.11V25.47Z" fill="#081B31"/>
<path d="M40 24.38L40.29 23.65H36.69C35.652 23.9607 34.6306 24.3245 33.63 24.74V29.08H33.32V28.32H33.15V25L32.6 25.26V30H33.46C34.5216 30.0033 35.5669 29.7383 36.4987 29.2296C37.4306 28.7208 38.2187 27.9849 38.79 27.09H38.2V26.43L39.29 26.12V26.02L39.46 25.6H38.23L39.64 25.25L39.83 24.77H38.23L40 24.38Z" fill="#525F6F"/>
<path d="M30.06 26.44C29.8587 26.6347 29.6984 26.8677 29.5885 27.1253C29.4786 27.3829 29.4213 27.6599 29.42 27.94V30.43H33.42C34.7234 30.4291 35.9986 30.051 37.0917 29.3412C38.1848 28.6314 39.0491 27.6203 39.58 26.43L30.06 26.44Z" fill="#081B31"/>
<path d="M41.77 20.72L47.06 19.41C47.1868 19.3799 47.2991 19.3065 47.3776 19.2024C47.4561 19.0984 47.4958 18.9702 47.49 18.84C47.34 16.22 45.93 14.35 44.12 12.6L40.61 12.87C40.5299 12.8729 40.4526 12.8997 40.388 12.947C40.3234 12.9942 40.2745 13.0598 40.2475 13.1352C40.2206 13.2106 40.2169 13.2924 40.237 13.3699C40.257 13.4474 40.2999 13.5171 40.36 13.57L44.28 17.26C45.48 18.75 43.71 19.75 41.77 20.72Z" fill="#FF8E1F"/>
<g style="mix-blend-mode:multiply">
<path d="M47.27 17.39H45.4L46.15 18.39C46.3032 18.5923 46.5012 18.7563 46.7286 18.8691C46.9559 18.9819 47.2063 19.0404 47.46 19.04C47.474 18.9707 47.474 18.8993 47.46 18.83C47.4437 18.345 47.3801 17.8627 47.27 17.39Z" fill="#FF8E1F"/>
</g>
<path d="M44.12 12.6L41 12.83L45.47 16.76L47.07 16.86C46.4399 15.2254 45.4285 13.7648 44.12 12.6Z" fill="#CED1D6"/>
<path d="M45.81 16.2L42.57 12.71L41 12.83L45.47 16.76L47.07 16.86C47.01 16.6867 46.9467 16.52 46.88 16.36L45.81 16.2Z" fill="#CED1D6"/>
<path d="M43.25 18.66C43.6477 18.66 43.97 18.3376 43.97 17.94C43.97 17.5424 43.6477 17.22 43.25 17.22C42.8524 17.22 42.53 17.5424 42.53 17.94C42.53 18.3376 42.8524 18.66 43.25 18.66Z" fill="#081B31"/>
<path d="M30.7701 29.18C31.1677 29.18 31.49 28.8576 31.49 28.46C31.49 28.0623 31.1677 27.74 30.7701 27.74C30.3724 27.74 30.05 28.0623 30.05 28.46C30.05 28.8576 30.3724 29.18 30.7701 29.18Z" fill="#081B31"/>
<path d="M36.0901 27.92C37.0068 27.92 37.7501 27.1768 37.7501 26.26C37.7501 25.3432 37.0068 24.6 36.0901 24.6C35.1733 24.6 34.4301 25.3432 34.4301 26.26C34.4301 27.1768 35.1733 27.92 36.0901 27.92Z" fill="#CED1D6"/>
<path d="M39.8799 14.67H37.9399V14.97H39.8799V14.67Z" fill="#081B31"/>
</g>
<defs>
<clipPath id="clip0_88_346">
<rect width="64" height="48" fill="white"/>
</clipPath>
</defs>
</svg>

<svg width="64" height="48" fill="none" xmlns="http://www.w3.org/2000/svg">
    <g clip-path="url(#a)">
        <path d="M48.31 21.79a6.66 6.66 0 1 0 .06 13.319 6.66 6.66 0 0 0-.06-13.319Zm0 11.7a5 5 0 1 1 0-10 5 5 0 0 1 0 10Z" fill="#081B31"/>
        <path d="M48.31 22.94a5.52 5.52 0 1 0 0 11.04 5.52 5.52 0 0 0 0-11.04Zm0 10.55a4.999 4.999 0 1 1 0-9.998 4.999 4.999 0 0 1 0 9.998Z" fill="#081B31"/>
        <path d="M44.28 24.33a1.28 1.28 0 0 0 1.83-.14c1.66-1.9 5.08-2.78 4.15-3a7.51 7.51 0 0 0-7.28 2l1.3 1.14Z" fill="#FF8E1F"/>
        <path d="M18.19 21.51a6.95 6.95 0 1 0 0 13.9 6.95 6.95 0 0 0 0-13.9Zm0 11.46a4.51 4.51 0 1 1 4.51-4.51A4.508 4.508 0 0 1 18.19 33v-.03Z" fill="#081B31"/>
        <path d="M18.19 23a5.49 5.49 0 1 0 0 10.98 5.49 5.49 0 0 0 0-10.98Zm0 10a4.51 4.51 0 1 1 0-9.02 4.51 4.51 0 0 1 0 9.02ZM48.31 31.59a3.13 3.13 0 1 0 0-6.26 3.13 3.13 0 0 0 0 6.26Z" fill="#081B31"/>
        <path d="M48.31 30.44a1.98 1.98 0 1 0 0-3.96 1.98 1.98 0 0 0 0 3.96ZM18.19 31.57a3.11 3.11 0 1 0 0-6.22 3.11 3.11 0 0 0 0 6.22Z" fill="#081B31"/>
        <path d="m41.85 21.61 5.55 8.27 1.33-.95-5.54-8.27-1.34.95ZM18.28 30.43h12.26l2.71-4h-15a2 2 0 1 0 .03 4Z" fill="#081B31"/>
        <path d="M19.55 16.67c2.616.04 5.212.453 7.71 1.23.282.094.515.295.65.56l.45.87a1.5 1.5 0 0 0 1.2.6h2.67l2.53-3.33a5.24 5.24 0 0 1 5.55-1.6l5 1.89-4 9.83a7.26 7.26 0 0 1-6.72 4.51h-7.72l.75-3.54C24.33 20.66 22 19.52 17.1 19l1-1.57a1.63 1.63 0 0 1 1.45-.76Z" fill="#FF8E1F"/>
        <path d="m19 18.63 1.25-1.27h-2.08v.05l-.8 1.22H19Z" fill="#FF8E1F" style="mix-blend-mode:multiply" opacity=".5"/>
        <path d="m27.62 27.72-.75 3.54h7.67a7.26 7.26 0 0 0 6.72-4.51l3.89-9.5S23.79 21.2 27.62 27.72Z" fill="#FF8E1F"/>
        <path d="M29.55 19.93a1.5 1.5 0 0 1-1.2-.6l-.45-.87a1.122 1.122 0 0 0-.65-.56c-.43-.14-.86-.26-1.29-.37v.14a4.38 4.38 0 0 0 2.33 3.52 2.8 2.8 0 0 0 3.58-.84l.3-.42h-2.62ZM29.43 30.43v-2.49c-.17-3.63 12-5.86 12-5.86l-1.71 4.12a6.75 6.75 0 0 1-6.27 4.23h-4.02Z" fill="#081B31"/>
        <path d="M32.11 25.47c-.22.12-.43.24-.62.36V30h.62v-4.53Z" fill="#081B31"/>
        <path d="m40 24.38.29-.73h-3.6a31.63 31.63 0 0 0-3.06 1.09v4.34h-.31v-.76h-.17V25l-.55.26V30h.86a6.3 6.3 0 0 0 5.33-2.91h-.59v-.66l1.09-.31v-.1l.17-.42h-1.23l1.41-.35.19-.48h-1.6l1.77-.39Z" fill="#525F6F"/>
        <path d="M30.06 26.44a2.1 2.1 0 0 0-.64 1.5v2.49h4a6.75 6.75 0 0 0 6.16-4l-9.52.01Z" fill="#081B31"/>
        <path d="m41.77 20.72 5.29-1.31a.56.56 0 0 0 .43-.57c-.15-2.62-1.56-4.49-3.37-6.24l-3.51.27a.4.4 0 0 0-.25.7l3.92 3.69c1.2 1.49-.57 2.49-2.51 3.46Z" fill="#FF8E1F"/>
        <path d="M47.27 17.39H45.4l.75 1a1.64 1.64 0 0 0 1.31.65.53.53 0 0 0 0-.21 7.451 7.451 0 0 0-.19-1.44Z" fill="#FF8E1F" style="mix-blend-mode:multiply"/>
        <path d="m44.12 12.6-3.12.23 4.47 3.93 1.6.1a11 11 0 0 0-2.95-4.26Z" fill="#CED1D6"/>
        <path d="m45.81 16.2-3.24-3.49-1.57.12 4.47 3.93 1.6.1a8.68 8.68 0 0 0-.19-.5l-1.07-.16Z" fill="#CED1D6"/>
        <path d="M43.25 18.66a.72.72 0 1 0 0-1.44.72.72 0 0 0 0 1.44ZM30.77 29.18a.72.72 0 1 0 0-1.44.72.72 0 0 0 0 1.44Z" fill="#081B31"/>
        <path d="M36.09 27.92a1.66 1.66 0 1 0 0-3.32 1.66 1.66 0 0 0 0 3.32Z" fill="#CED1D6"/>
        <path d="M39.88 14.67h-1.94v.3h1.94v-.3Z" fill="#081B31"/>
    </g>
    <defs>
        <clipPath id="a">
            <path fill="#fff" d="M0 0h64v48H0z"/>
        </clipPath>
    </defs>
</svg>
